icons/mobile/24/svg/warning-fill-24.svg

<svg width="24" height="24" viewBox="0 0 24 24" fill="none" xmlns="http://www.w3.org/2000/svg">
<path fill-rule="evenodd" clip-rule="evenodd" d="M11.9625 3C13.1585 3.00003 14.3561 3.59893 15.0231 4.79883L21.0456 15.6299C22.2985 17.8838 20.763 20.686 18.1881 20.8291C16.0252 20.9491 13.9641 21 12.0182 21C9.85225 21 7.77364 20.9372 5.79067 20.8262C3.23102 20.682 1.71336 17.8943 2.94692 15.6475L8.89516 4.81543C9.55908 3.60562 10.7607 3.00016 11.9625 3ZM11.9997 15.5C11.4475 15.5001 10.9997 15.9478 10.9997 16.5C10.9997 17.0522 11.4475 17.4999 11.9997 17.5C12.5519 17.5 12.9997 17.0523 12.9997 16.5C12.9997 15.9477 12.5519 15.5 11.9997 15.5ZM11.9997 8.5C11.5168 8.50013 11.1247 8.89208 11.1247 9.375V13.125C11.1247 13.6079 11.5168 13.9999 11.9997 14C12.4827 14 12.8747 13.608 12.8747 13.125V9.375C12.8747 8.892 12.4827 8.5 11.9997 8.5Z" fill="black"/>
</svg>

<!-- This Source Code Form is subject to the terms of the Mozilla Public
   - License, v. 2.0. If a copy of the MPL was not distributed with this
   - file, You can obtain one at http://mozilla.org/MPL/2.0/. -->
<svg xmlns="http://www.w3.org/2000/svg" width="24" height="24" fill="none" viewBox="0 0 24 24">
    <path fill="#000" fill-rule="evenodd" d="M11.963 3c1.196 0 2.393.599 3.06 1.799l6.023 10.83c1.253 2.255-.283 5.057-2.858 5.2a111 111 0 0 1-12.397-.003c-2.56-.144-4.078-2.932-2.844-5.178L8.895 4.815A3.46 3.46 0 0 1 11.963 3M12 15.5a1 1 0 1 0 0 2 1 1 0 0 0 0-2m0-7a.876.876 0 0 0-.875.875v3.75a.876.876 0 0 0 1.75 0v-3.75A.875.875 0 0 0 12 8.5" clip-rule="evenodd" />
</svg>
